X: 15
T:Jockey to the Fair
% Nottingham Music Database
S:McCuskers
M:6/8
K:G
P:A
D|"G"G2A B2c|"G"dge d2c|"G"BdB GFG|"Am"cBc ABc|
"D"d^cd "A7"efg|"D"f/2g/2af d2g|"Em"fed "A7"AB^c|"D7"d3 d2:|
P:B
e/2f/2g/2|"D"afd afd|"C"cBc "G"B2c|"G"dgd dgd|"C"cBc "G"Bcd|
"C"e2f gfe|"G"d2c Bcd|"C"edc "D"BcA|"Em"B2G "D7/f+"E2D|"G"GAG GBd|
"C"e2f gfe|"G"dBG A2B|"C""Em"E2F "D"G2A|"G"B2g "D"B2A|"G"G3 G2:|<end>
<start>
